lib/healthicons/icons/solid/devices/weight.svg

<svg fill="none" height="48" viewBox="0 0 48 48" width="48" xmlns="http://www.w3.org/2000/svg"><path clip-rule="evenodd" d="m40.2099 38.2219c-.1178 2.1197-1.8709 3.7781-3.9938 3.7781h-24.4321c-2.12298 0-3.87613-1.6585-3.99389-3.7781l-1.55555-28c-.12738-2.29283 1.6975-4.2219 3.99384-4.2219h27.5432c2.2964 0 4.1212 1.92908 3.9939 4.2219zm-5.9657-20.4433c.8198-.5401 1.026-1.6109.3532-2.3076-1.1245-1.1644-2.4584-2.1405-3.945-2.8815-2.0221-1.0078-4.2696-1.5518-6.5585-1.5876s-4.5544.4377-6.6111 1.3818c-1.5121.6941-2.8798 1.628-4.0449 2.7566-.6972.6753-.529 1.7519.2713 2.3174l4.3119 3.0465c.8003.5654 1.9276.3826 2.7568-.1448.2123-.135.435-.2562.6666-.3625.7312-.3357 1.5321-.514 2.3446-.5228l3.393-3.9012c.3624-.4167.994-.4607 1.4108-.0983.4167.3624.4607.9941.0983 1.4108l-2.6304 3.0244c.1227.0507.2436.1057.3624.1649.2277.1135.446.2416.6534.3832.8101.5529 1.9302.7709 2.7501.2308z" fill="#333" fill-rule="evenodd"/></svg>

<svg width="48" height="48" viewBox="0 0 48 48" fill="none" xmlns="http://www.w3.org/2000/svg">
<path fill-rule="evenodd" clip-rule="evenodd" d="M40.2099 38.2219C40.0921 40.3416 38.339 42 36.2161 42L11.784 42C9.66102 42 7.90787 40.3415 7.79011 38.2219L6.23456 10.2219C6.10718 7.92907 7.93206 6 10.2284 6L37.7716 6C40.068 6 41.8928 7.92908 41.7655 10.2219L40.2099 38.2219ZM34.2442 17.7786C35.064 17.2385 35.2702 16.1677 34.5974 15.471C33.4729 14.3066 32.139 13.3305 30.6524 12.5895C28.6303 11.5817 26.3828 11.0377 24.0939 11.0019C21.805 10.9661 19.5395 11.4396 17.4828 12.3837C15.9707 13.0778 14.603 14.0117 13.4379 15.1403C12.7407 15.8156 12.9089 16.8922 13.7092 17.4577L18.0211 20.5042C18.8214 21.0696 19.9487 20.8868 20.7779 20.3594C20.9902 20.2244 21.2129 20.1032 21.4445 19.9969C22.1757 19.6612 22.9766 19.4829 23.7891 19.4741L27.1821 15.5729C27.5445 15.1562 28.1761 15.1122 28.5929 15.4746C29.0096 15.837 29.0536 16.4687 28.6912 16.8854L26.0608 19.9098C26.1835 19.9605 26.3044 20.0155 26.4232 20.0747C26.6509 20.1882 26.8692 20.3163 27.0766 20.4579C27.8867 21.0108 29.0068 21.2288 29.8267 20.6887L34.2442 17.7786Z" fill="#333333"/>
</svg>
